X:1
T:A Wee Drap o' Whisky
M:3/4
L:1/4
K:A
 E| C F F| F E F| A F F| F A B| c c c| f- e c| c A c| e2 B| c f f|\
 f e c| c F F| A B B| c e c| c B A| A F F| F2||

